storage/app/icons/phosphoricons/light/circles-four-light.svg

<svg xmlns="http://www.w3.org/2000/svg" fill="currentColor" viewBox="0 0 256 256"><path d="M80 42a38 38 0 1 0 38 38 38 38 0 0 0-38-38m0 64a26 26 0 1 1 26-26 26 26 0 0 1-26 26m96 12a38 38 0 1 0-38-38 38 38 0 0 0 38 38m0-64a26 26 0 1 1-26 26 26 26 0 0 1 26-26m-96 84a38 38 0 1 0 38 38 38 38 0 0 0-38-38m0 64a26 26 0 1 1 26-26 26 26 0 0 1-26 26m96-64a38 38 0 1 0 38 38 38 38 0 0 0-38-38m0 64a26 26 0 1 1 26-26 26 26 0 0 1-26 26"/></svg>

<svg xmlns="http://www.w3.org/2000/svg" viewBox="0 0 256 256" fill="currentColor"><path d="M80,42a38,38,0,1,0,38,38A38,38,0,0,0,80,42Zm0,64a26,26,0,1,1,26-26A26,26,0,0,1,80,106Zm96,12a38,38,0,1,0-38-38A38,38,0,0,0,176,118Zm0-64a26,26,0,1,1-26,26A26,26,0,0,1,176,54ZM80,138a38,38,0,1,0,38,38A38,38,0,0,0,80,138Zm0,64a26,26,0,1,1,26-26A26,26,0,0,1,80,202Zm96-64a38,38,0,1,0,38,38A38,38,0,0,0,176,138Zm0,64a26,26,0,1,1,26-26A26,26,0,0,1,176,202Z"/></svg>
